X: 1095
T: Devonshire House.
%R: waltz, jig
B: Henry Playford "Apollo's Banquet", London 1687 (5th Edition)
F: https://archive.org/details/apollosbanquetco01rugg
Z: 2017 John Chambers <jc:trillian.mit.edu>
M: 6/4
L: 1/4
K: Bb
% - - - - - - - - - -
d/c/ |\
B2f d>cB | fga b2a |\
g>ab a>gf | f2=e f2 :: d |\
e2f g>fe | dec f2e |
d>cB cAB | G2F F2B |\
G>FG E2e | c>Bc F2f |\
d>cB B2A | B3- B2 |]
% - - - - - - - - - -

%%sep 1 1 500
%%sep 1 1 500

